X:1
T:Title
T:Meus Dedinhos 
T:Composer
C:Composer
L:1/8
M:4/4
K:C
V:1 treble nm="Piano" snm="Pno."
V:1
 C2 D2 E2 C2 | C2 D2 E2 C2 | E2 F2 G4 | E2 F2 G4 | GAGF E2 C2 | GAGF E2 C2 | D2 G,2 C4 | %7
 D2 G,2 C4 |] %8

